peacock.svg

<svg viewBox="0 0 24 24" xmlns="http://www.w3.org/2000/svg"><path d="M1.54222 10.5871C0.691521 10.5871 0 11.2786 0 12.1293L0 15.6965L0.731282 15.6965L0.731282 13.7165L0.999938 13.9999L2.07456 13.5772C2.68656 13.3384 3.08458 12.786 3.08458 12.1294C3.08458 11.2787 2.39306 10.5871 1.54222 10.5871ZM1.81598 12.9304L0.731417 13.3533L0.731417 12.1294C0.731417 11.6368 1.09961 11.2837 1.54236 11.2837C1.9851 11.2837 2.35329 11.6418 2.35329 12.1294C2.35329 12.4378 2.20406 12.7762 1.81598 12.9304ZM14.4478 10.5871C13.5971 10.5871 12.9056 11.2786 12.9056 12.1293C12.9056 12.98 13.5971 13.6715 14.4478 13.6715C15.2985 13.6715 15.99 12.98 15.99 12.1293C15.99 11.2786 15.2985 10.5871 14.4478 10.5871ZM14.4478 12.9752C13.9802 12.9752 13.6369 12.6021 13.6369 12.1294C13.6369 11.6567 13.9901 11.2837 14.4478 11.2837C14.9154 11.2837 15.2587 11.6567 15.2587 12.1294C15.2587 12.6021 14.9154 12.9752 14.4478 12.9752ZM17.7861 11.2837C18.1043 11.2837 18.3631 11.4578 18.4975 11.7165L19.0696 11.2787C18.791 10.8658 18.3234 10.5922 17.7861 10.5922C16.9353 10.5922 16.2438 11.2837 16.2438 12.1344C16.2438 12.9851 16.9353 13.6766 17.7861 13.6766C18.3185 13.6766 18.7909 13.403 19.0696 12.9901L18.4975 12.5522C18.3631 12.811 18.1043 12.9851 17.7861 12.9851C17.3184 12.9851 16.9752 12.6121 16.9752 12.1394C16.9752 11.6667 17.3283 11.2837 17.7861 11.2837ZM11.5472 11.2837C11.8657 11.2837 12.1245 11.4578 12.2588 11.7165L12.8309 11.2787C12.5523 10.8658 12.0846 10.5922 11.5472 10.5922C10.6965 10.5922 10.005 11.2837 10.005 12.1344C10.005 12.9851 10.6965 13.6766 11.5472 13.6766C12.0796 13.6766 12.5523 13.403 12.8309 12.9901L12.2588 12.5522C12.1245 12.811 11.8657 12.9851 11.5472 12.9851C11.0797 12.9851 10.7363 12.6121 10.7363 12.1394C10.7363 11.6667 11.0846 11.2837 11.5472 11.2837ZM8.99004 10.9553C8.74127 10.6965 8.41297 10.5872 8.06963 10.5872C7.35312 10.5872 6.62694 11.239 6.62694 12.1294C6.62694 13.0199 7.35312 13.6716 8.06963 13.6716C8.41297 13.6716 8.74127 13.5623 8.99004 13.3036L8.99004 13.5822L9.72146 13.5822L9.72146 10.6815L8.99004 10.6815L8.99004 10.9553ZM8.1791 12.9752C7.71164 12.9752 7.35823 12.6021 7.35823 12.1294C7.35823 11.6567 7.72145 11.2837 8.1791 11.2837C8.64683 11.2837 8.99004 11.6567 8.99004 12.1294C8.99004 12.6021 8.64683 12.9752 8.1791 12.9752ZM21.1044 12.0249L20.7761 12.0249L22.0447 10.6767L21.1044 10.6767L20.0795 11.7812L20.0795 9.09468L19.3482 9.09468L19.3482 13.5823L20.0795 13.5823L20.0795 12.7565L20.4825 12.3285L21.3431 13.5823L22.2287 13.5823L21.1044 12.0249ZM4.86563 10.5871C4.01493 10.5871 3.32341 11.2786 3.32341 12.1293C3.32341 12.98 4.01493 13.6715 4.86563 13.6715C5.37312 13.6715 5.85066 13.4278 6.12442 13.0497L5.53727 12.6418C5.46756 12.7562 5.24377 12.9749 4.86563 12.9749C4.51745 12.9749 4.23375 12.766 4.11447 12.4626L6.33841 12.4626C6.36339 12.3532 6.37333 12.2437 6.37333 12.1293C6.37803 11.2787 5.71647 10.5871 4.86563 10.5871ZM4.11944 11.796C4.23886 11.4924 4.52242 11.2837 4.86563 11.2837C5.21395 11.2837 5.47763 11.4926 5.58711 11.796L4.11944 11.796Z" fill="#000000"/><path d="M23.5573 13.1444C23.3134 13.1444 23.1144 13.3433 23.1144 13.5873C23.1144 13.831 23.3133 14.0299 23.5573 14.0299C23.8009 14.0299 24 13.8311 24 13.5873C24 13.3433 23.8011 13.1444 23.5573 13.1444Z" fill="#069de0"/><path d="M23.5573 11.9355C23.3134 11.9355 23.1144 12.1344 23.1144 12.3783C23.1144 12.622 23.3133 12.8209 23.5573 12.8209C23.8009 12.8209 24 12.6221 24 12.3783C23.995 12.1294 23.8011 11.9355 23.5573 11.9355Z" fill="#6e55dc"/><path d="M23.5573 14.3534C23.3134 14.3534 23.1144 14.5523 23.1144 14.7962C23.1144 15.0399 23.3133 15.2389 23.5573 15.2389C23.8009 15.2389 24 15.04 24 14.7962C24 14.5523 23.8011 14.3534 23.5573 14.3534Z" fill="#05ac3f"/><path d="M23.5573 10.7214C23.3134 10.7214 23.1144 10.9203 23.1144 11.1643C23.1144 11.4079 23.3133 11.607 23.5573 11.607C23.8009 11.607 24 11.4081 24 11.1643C23.995 10.9205 23.8011 10.7214 23.5573 10.7214Z" fill="#ef1541"/><path d="M23.5573 9.51244C23.3134 9.51244 23.1144 9.71138 23.1144 9.95532C23.1144 10.199 23.3133 10.3981 23.5573 10.3981C23.8009 10.3981 24 10.1991 24 9.95532C23.995 9.71152 23.8011 9.51244 23.5573 9.51244Z" fill="#ff7112"/><path d="M23.5573 8.30349C23.3134 8.30349 23.1144 8.50243 23.1144 8.74637C23.1144 8.99004 23.3133 9.18912 23.5573 9.18912C23.8009 9.18912 24 8.99018 24 8.74637C23.995 8.50257 23.8011 8.30349 23.5573 8.30349Z" fill="#fccc12"/></svg>

<svg viewBox="0 0 24 24" xmlns="http://www.w3.org/2000/svg"><path d="M1.542 10.587C.692 10.587 0 11.28 0 12.13v3.568h.731v-1.98L1 14l1.075-.423c.612-.239 1.01-.791 1.01-1.448 0-.85-.692-1.542-1.543-1.542Zm.274 2.343-1.085.423V12.13c0-.492.369-.845.811-.845.443 0 .811.358.811.845 0 .309-.149.647-.537.801Zm12.632-2.343c-.85 0-1.542.692-1.542 1.542 0 .851.691 1.543 1.542 1.543a1.544 1.544 0 0 0 0-3.084Zm0 2.388c-.468 0-.811-.373-.811-.846 0-.472.353-.845.81-.845.468 0 .812.373.812.845 0 .473-.344.846-.811.846Zm3.338-1.691a.79.79 0 0 1 .711.432l.573-.437a1.544 1.544 0 0 0-2.826.855 1.544 1.544 0 0 0 2.826.856l-.573-.438a.79.79 0 0 1-.71.433c-.469 0-.812-.373-.812-.846 0-.472.353-.855.811-.855Zm-6.239 0a.79.79 0 0 1 .712.432l.572-.437a1.544 1.544 0 0 0-2.826.855 1.544 1.544 0 0 0 2.826.856l-.572-.438a.789.789 0 0 1-.712.433c-.467 0-.81-.373-.81-.846 0-.472.348-.855.81-.855Zm-2.557-.329c-.249-.258-.577-.368-.92-.368-.717 0-1.443.652-1.443 1.542s.726 1.543 1.443 1.543c.343 0 .671-.11.92-.368v.278h.731v-2.9H8.99v.273Zm-.81 2.02c-.468 0-.822-.373-.822-.846 0-.472.363-.845.821-.845.468 0 .811.373.811.845 0 .473-.343.846-.81.846Zm12.924-.95h-.328l1.269-1.348h-.94l-1.026 1.104V9.095h-.73v4.487h.73v-.825l.404-.428.86 1.253h.886l-1.125-1.557ZM4.866 10.587c-.851 0-1.543.692-1.543 1.542 0 .851.692 1.543 1.543 1.543.507 0 .985-.244 1.258-.622l-.587-.408c-.07.114-.293.333-.671.333a.797.797 0 0 1-.752-.512h2.224a1.48 1.48 0 0 0 .035-.334c.005-.85-.657-1.542-1.507-1.542Zm-.747 1.209a.795.795 0 0 1 .747-.512c.348 0 .612.209.721.512H4.12Z"/><path d="M23.557 13.144a.444.444 0 0 0 0 .886.444.444 0 0 0 0-.886Z" fill="#069de0"/><path d="M23.557 11.935a.444.444 0 0 0 0 .886.444.444 0 0 0 0-.886Z" fill="#6e55dc"/><path d="M23.557 14.353a.444.444 0 0 0 0 .886.444.444 0 0 0 0-.886Z" fill="#05ac3f"/><path d="M23.557 10.721a.444.444 0 0 0 0 .886.444.444 0 0 0 .443-.443.447.447 0 0 0-.443-.443Z" fill="#ef1541"/><path d="M23.557 9.512a.444.444 0 0 0 0 .886.444.444 0 0 0 .443-.443.447.447 0 0 0-.443-.443Z" fill="#ff7112"/><path d="M23.557 8.303a.444.444 0 0 0 0 .886.444.444 0 0 0 .443-.443.447.447 0 0 0-.443-.443Z" fill="#fccc12"/></svg>
